X: 40174
T: Time At The Old House
R: reel
M: 4/4
K: Adorian
A2 GA ABde-|eede gfdB|e2 A2 ABde-|eede BAAG|
GAEG ABde-|eede gfdB|e2 A2 ABGA-|A8:|
K:Bm
B3 f eABF-|FFBd c2 cd|ABdf eBaf-|ffdf ef/e/ cd|
B2 Bf eABF-|FFBd cBBA|ABBd eABB-|B8:|

